Assets/Labs/Lab 2/Exported LUT.cube
#Created by: Affinity
TITLE "Exported LUT"
#LUT size
LUT_3D_SIZE 9
#data domain
DOMAIN_MIN 0.0 0.0 0.0
DOMAIN_MAX 1.0 1.0 1.0
#LUT data points
0.000000 0.000000 0.000000
0.130680 0.000000 0.000000
0.306908 0.000000 0.000000
0.536715 0.000000 0.000000
0.810238 0.000000 0.000000
0.843137 0.000000 0.000000
0.843137 0.000000 0.000000
0.843137 0.000000 0.000000
0.843137 0.000000 0.000000
0.000000 0.131289 0.000000
0.129486 0.131229 0.000000
0.302176 0.131176 0.000000
0.526693 0.131128 0.000000
0.797396 0.131086 0.000000
0.843137 0.131048 0.000000
0.843137 0.131013 0.000000
0.843137 0.130982 0.000000
0.843137 0.130953 0.000000
0.000000 0.312184 0.000000
0.128563 0.311964 0.000000
0.298511 0.311767 0.000000
0.518858 0.311589 0.000000
0.786860 0.311429 0.000000
0.843137 0.311283 0.000000
0.843137 0.311149 0.000000
0.843137 0.311027 0.000000
0.843137 0.310915 0.000000
0.000000 0.554894 0.000000
0.127830 0.554456 0.000000
0.295588 0.554059 0.000000
0.512567 0.553699 0.000000
0.778121 0.553370 0.000000
0.843137 0.553068 0.000000
0.843137 0.552791 0.000000
0.843137 0.552535 0.000000
0.843137 0.552017 0.000000
0.000000 0.839182 0.000000
0.127232 0.838815 0.000000
0.293202 0.838474 0.000000
0.507403 0.838158 0.000000
0.770782 0.837865 0.000000
0.843137 0.837592 0.000000
0.843137 0.837050 0.000000
0.843137 0.836202 0.000000
0.843137 0.835265 0.000000
0.000000 0.843137 0.000000
0.126736 0.843137 0.000000
0.291218 0.843137 0.000000
0.503089 0.843137 0.000000
0.765773 0.843137 0.000000
0.843137 0.843137 0.000000
0.843137 0.843137 0.000000
0.843137 0.843137 0.000000
0.843137 0.843137 0.000000
0.000000 0.843137 0.000000
0.126317 0.843137 0.000000
0.289850 0.843137 0.000000
0.501595 0.843137 0.000000
0.764630 0.843137 0.000000
0.843137 0.843137 0.000000
0.843137 0.843137 0.000000
0.843137 0.843137 0.000000
0.843137 0.843137 0.000000
0.000000 0.843137 0.000000
0.126166 0.843137 0.000000
0.289545 0.843137 0.000000
0.500814 0.843137 0.000000
0.763287 0.843137 0.000000
0.843137 0.843137 0.000000
0.843137 0.843137 0.000000
0.843137 0.843137 0.000000
0.843137 0.843137 0.000000
0.000000 0.843137 0.000000
0.126090 0.843137 0.000000
0.289188 0.843137 0.000000
0.499892 0.843137 0.000000
0.761686 0.843137 0.000000
0.843137 0.843137 0.000000
0.843137 0.843137 0.000000
0.843137 0.843137 0.000000
0.843137 0.843137 0.000000
0.000000 0.000000 0.159335
0.130432 0.000000 0.160893
0.305924 0.000000 0.162278
0.534640 0.000000 0.163516
0.807644 0.000000 0.164629
0.843137 0.000000 0.165637
0.843137 0.000000 0.166552
0.843137 0.000000 0.167387
0.843137 0.000000 0.168153
0.000000 0.131266 0.162234
0.128793 0.130761 0.163980
0.303932 0.128649 0.163071
0.530894 0.125308 0.160817
0.879929 0.046416 0.090904
0.974172 0.000000 0.049695
0.974139 0.000000 0.050786
0.974108 0.000000 0.051789
0.974081 0.000000 0.052715
0.000000 0.312100 0.164559
0.125711 0.314592 0.163964
0.299650 0.313839 0.164354
0.522743 0.310617 0.162174
0.889576 0.255421 0.063636
1.000000 0.220630 0.011949
1.000000 0.220201 0.012602
1.000000 0.219805 0.013206
1.000000 0.219438 0.013767
0.000000 0.554728 0.166464
0.121424 0.560591 0.162189
0.293165 0.559608 0.162394
0.515958 0.559244 0.163120
0.872560 0.578592 0.073541
1.000000 0.574577 0.013187
1.000000 0.574070 0.013749
1.000000 0.573599 0.014273
1.000000 0.572577 0.014205
0.000000 0.839044 0.168054
0.000000 0.965819 0.056511
0.190790 1.000000 0.007778
0.507754 1.000000 0.008079
0.898602 1.000000 0.008356
1.000000 0.991725 0.014256
1.000000 0.990630 0.014209
1.000000 0.989340 0.014093
1.000000 0.987915 0.013967
0.000000 0.843137 0.169401
0.000000 0.969790 0.058687
0.190141 1.000000 0.013713
0.500142 1.000000 0.014239
0.886228 1.000000 0.014213
1.000000 1.000000 0.014097
1.000000 1.000000 0.013971
1.000000 1.000000 0.013835
1.000000 1.000000 0.013686
0.000000 0.843137 0.170557
0.000000 0.969383 0.060631
0.188353 1.000000 0.014216
0.498849 1.000000 0.014101
0.884515 1.000000 0.013976
1.000000 1.000000 0.013840
1.000000 1.000000 0.013692
1.000000 1.000000 0.013530
1.000000 1.000000 0.013351
0.000000 0.843137 0.171083
0.000000 0.969290 0.060585
0.187984 1.000000 0.013980
0.497730 1.000000 0.013844
0.882497 1.000000 0.013697
1.000000 1.000000 0.013535
1.000000 1.000000 0.013358
1.000000 1.000000 0.013162
1.000000 1.000000 0.012945
0.000000 0.843137 0.170847
0.000000 0.969212 0.060333
0.187550 1.000000 0.013702
0.496404 1.000000 0.013541
0.880085 1.000000 0.013364
1.000000 1.000000 0.013169
1.000000 1.000000 0.012952
1.000000 1.000000 0.012711
1.000000 1.000000 0.012440
0.000000 0.000000 0.405622
0.130196 0.000000 0.414447
0.304991 0.000000 0.422483
0.532667 0.000000 0.429823
0.805145 0.000000 0.436549
0.843137 0.000000 0.442735
0.843137 0.000000 0.448443
0.843137 0.000000 0.453726
0.843137 0.000000 0.458630
0.000000 0.131244 0.422227
0.124689 0.126823 0.434015
0.301206 0.126644 0.440830
0.529339 0.125315 0.445931
0.875578 0.048707 0.444807
0.974159 0.000000 0.441221
0.974127 0.000000 0.447955
0.974098 0.000000 0.454220
0.974071 0.000000 0.460065
0.000000 0.312020 0.436118
0.123644 0.312598 0.446965
0.295126 0.309835 0.450297
0.519376 0.308451 0.454549
0.919248 0.175487 0.407068
1.000000 0.154321 0.395514
1.000000 0.154196 0.402367
1.000000 0.154081 0.408772
1.000000 0.153975 0.414773
0.000000 0.554568 0.447892
0.121308 0.560446 0.456525
0.289138 0.559297 0.459597
0.511766 0.576650 0.439557
0.891874 0.501684 0.350405
1.000000 0.464982 0.314186
1.000000 0.462002 0.317942
1.000000 0.458750 0.321670
1.000000 0.454287 0.326051
0.000000 0.838910 0.457996
0.000000 0.965599 0.455393
0.130661 1.000000 0.408560
0.374370 1.000000 0.308860
0.868526 0.999767 0.312579
1.000000 0.989073 0.321531
1.000000 0.987466 0.325898
1.000000 0.985670 0.330706
1.000000 0.983656 0.336024
0.000000 0.843137 0.466763
0.000000 0.969709 0.465820
0.133698 1.000000 0.422166
0.365602 1.000000 0.321392
0.854556 1.000000 0.325746
1.000000 1.000000 0.330538
1.000000 1.000000 0.335838
1.000000 1.000000 0.341731
1.000000 1.000000 0.348321
0.000000 0.843137 0.474440
0.000000 0.969346 0.475808
0.132879 1.000000 0.434846
0.356872 1.000000 0.330370
0.850348 1.000000 0.335652
1.000000 1.000000 0.341524
1.000000 1.000000 0.348089
1.000000 1.000000 0.355479
1.000000 1.000000 0.363859
0.000000 0.843137 0.482305
0.000000 0.969277 0.487920
0.132556 1.000000 0.450432
0.345726 1.000000 0.341317
0.845040 1.000000 0.347858
1.000000 1.000000 0.355218
1.000000 1.000000 0.363562
1.000000 1.000000 0.373099
1.000000 1.000000 0.384103
0.000000 0.843137 0.492145
0.000000 0.969196 0.502678
0.132175 1.000000 0.469614
0.342641 1.000000 0.366203
0.838099 1.000000 0.363266
1.000000 1.000000 0.372759
1.000000 1.000000 0.383709
1.000000 1.000000 0.396476
1.000000 1.000000 0.411549
0.000000 0.000000 0.743984
0.129972 0.000000 0.767284
0.304105 0.000000 0.788195
0.530790 0.000000 0.806752
0.802738 0.000000 0.822875
0.843137 0.000000 0.836196
0.843137 0.000000 0.843137
0.843137 0.000000 0.843137
0.843137 0.000000 0.843137
0.000000 0.131223 0.787536
0.033597 0.036452 0.901518
0.240005 0.013759 0.939745
0.536466 0.000000 0.966889
0.903202 0.000000 0.974182
0.974147 0.000000 0.974147
0.974116 0.000000 0.974116
0.974087 0.000000 0.974088
0.974061 0.000000 0.974062
0.000000 0.311943 0.821880
0.000000 0.250143 0.963547
0.139937 0.163193 1.000000
0.478542 0.154551 1.000000
0.902449 0.154406 1.000000
1.000000 0.154274 1.000000
1.000000 0.154153 1.000000
1.000000 0.154041 1.000000
1.000000 0.153938 1.000000
0.000000 0.554414 0.843137
0.000000 0.578502 0.970618
0.137334 0.545091 1.000000
0.352697 0.437649 1.000000
0.855814 0.396177 1.000000
1.000000 0.395902 1.000000
1.000000 0.395648 1.000000
1.000000 0.395079 1.000000
1.000000 0.394300 1.000000
0.000000 0.838780 0.843137
0.000000 0.963721 0.970081
0.135187 0.992140 1.000000
0.348037 0.989783 1.000000
0.610309 0.971417 1.000000
1.000000 0.680107 1.000000
1.000000 0.679250 1.000000
1.000000 0.678304 1.000000
1.000000 0.677256 1.000000
0.000000 0.843137 0.843137
0.000000 0.969631 0.969630
0.133385 1.000000 1.000000
0.345040 1.000000 1.000000
0.608293 1.000000 1.000000
0.843137 0.843137 0.843137
0.843137 0.843137 0.843137
0.843137 0.843137 0.843137
0.843137 0.843137 0.843137
0.000000 0.843137 0.843137
0.000000 0.969334 0.969333
0.132823 1.000000 1.000000
0.344311 1.000000 1.000000
0.607044 1.000000 1.000000
0.843137 0.843137 0.843137
0.843137 0.843137 0.843137
0.843137 0.843137 0.843137
0.843137 0.843137 0.843137
0.000000 0.843137 0.843137
0.000000 0.969263 0.969262
0.132490 1.000000 1.000000
0.343455 1.000000 1.000000
0.605565 1.000000 1.000000
0.843137 0.843137 0.843137
0.843137 0.843137 0.843137
0.843137 0.843137 0.843137
0.843137 0.843137 0.843137
0.000000 0.843137 0.843137
0.000000 0.969179 0.969179
0.132096 1.000000 1.000000
0.342436 1.000000 1.000000
0.603785 1.000000 1.000000
0.843137 0.843137 0.843137
0.843137 0.843137 0.843137
0.843137 0.843137 0.843137
0.843137 0.843137 0.843137
0.000000 0.000000 0.843137
0.129760 0.000000 0.843137
0.303261 0.000000 0.843137
0.529000 0.000000 0.843137
0.800421 0.000000 0.843137
0.843137 0.000000 0.843137
0.843137 0.000000 0.843137
0.843137 0.000000 0.843137
0.843137 0.000000 0.843137
0.000000 0.131203 0.843137
0.000000 0.003232 0.971915
0.230216 0.000000 0.974245
0.533046 0.000000 0.974205
0.900587 0.000000 0.974169
0.974135 0.000000 0.974136
0.974105 0.000000 0.974105
0.974078 0.000000 0.974078
0.974052 0.000000 0.974053
0.000000 0.311869 0.843137
0.000000 0.249434 0.971139
0.139410 0.163392 1.000000
0.476759 0.154496 1.000000
0.899937 0.154356 1.000000
1.000000 0.154228 1.000000
1.000000 0.154111 1.000000
1.000000 0.154002 1.000000
1.000000 0.153889 1.000000
0.000000 0.554266 0.843137
0.000000 0.578314 0.970510
0.136903 0.545027 1.000000
0.351763 0.438192 1.000000
0.853069 0.396073 1.000000
1.000000 0.395806 1.000000
1.000000 0.395544 1.000000
1.000000 0.394801 1.000000
1.000000 0.393999 1.000000
0.000000 0.838653 0.843137
0.000000 0.963473 0.969991
0.134827 0.991970 1.000000
0.347255 0.989599 1.000000
0.609174 0.971274 1.000000
1.000000 0.679802 1.000000
1.000000 0.678914 1.000000
1.000000 0.677932 1.000000
1.000000 0.676844 1.000000
0.000000 0.843137 0.843137
0.000000 0.969555 0.969554
0.133080 1.000000 1.000000
0.344912 1.000000 1.000000
0.608075 1.000000 1.000000
0.843137 0.843137 0.843137
0.843137 0.843137 0.843137
0.843137 0.843137 0.843137
0.843137 0.843137 0.843137
0.000000 0.843137 0.843137
0.000000 0.969321 0.969321
0.132765 1.000000 1.000000
0.344162 1.000000 1.000000
0.606788 1.000000 1.000000
0.843137 0.843137 0.843137
0.843137 0.843137 0.843137
0.843137 0.843137 0.843137
0.843137 0.843137 0.843137
0.000000 0.843137 0.843137
0.000000 0.969248 0.969248
0.132422 1.000000 1.000000
0.343279 1.000000 1.000000
0.605258 1.000000 1.000000
0.843137 0.843137 0.843137
0.843137 0.843137 0.843137
0.843137 0.843137 0.843137
0.843137 0.843137 0.843137
0.000000 0.843137 0.843137
0.000000 0.969162 0.969162
0.132015 1.000000 1.000000
0.342224 1.000000 1.000000
0.603413 1.000000 1.000000
0.843137 0.843137 0.843137
0.843137 0.843137 0.843137
0.843137 0.843137 0.843137
0.843137 0.843137 0.843137
0.000000 0.000000 0.843137
0.129558 0.000000 0.843137
0.302459 0.000000 0.843137
0.527294 0.000000 0.843137
0.798188 0.000000 0.843137
0.843137 0.000000 0.843137
0.843137 0.000000 0.843137
0.843137 0.000000 0.843137
0.843137 0.000000 0.843137
0.000000 0.131184 0.843137
0.000000 0.003423 0.971757
0.229368 0.000000 0.974230
0.531202 0.000000 0.974191
0.898063 0.000000 0.974156
0.974124 0.000000 0.974124
0.974095 0.000000 0.974095
0.974068 0.000000 0.974068
0.974044 0.000000 0.974044
0.000000 0.311798 0.843137
0.000000 0.249442 0.971012
0.138904 0.163583 1.000000
0.475043 0.154443 1.000000
0.897507 0.154308 1.000000
1.000000 0.154184 1.000000
1.000000 0.154070 1.000000
1.000000 0.153965 1.000000
1.000000 0.153781 1.000000
0.000000 0.554123 0.843137
0.000000 0.578132 0.970406
0.136487 0.544966 1.000000
0.350861 0.438713 1.000000
0.850408 0.395973 1.000000
1.000000 0.395714 1.000000
1.000000 0.395278 1.000000
1.000000 0.394514 1.000000
1.000000 0.393689 1.000000
0.000000 0.838529 0.843137
0.000000 0.963232 0.969904
0.134479 0.991805 1.000000
0.346496 0.989419 1.000000
0.608982 0.969883 1.000000
1.000000 0.679487 1.000000
1.000000 0.678565 1.000000
1.000000 0.677546 1.000000
1.000000 0.676416 1.000000
0.000000 0.843137 0.843137
0.000000 0.969481 0.969481
0.133006 1.000000 1.000000
0.344781 1.000000 1.000000
0.607851 1.000000 1.000000
0.843137 0.843137 0.843137
0.843137 0.843137 0.843137
0.843137 0.843137 0.843137
0.843137 0.843137 0.843137
0.000000 0.843137 0.843137
0.000000 0.969308 0.969308
0.132705 1.000000 1.000000
0.344008 1.000000 1.000000
0.606523 1.000000 1.000000
0.843137 0.843137 0.843137
0.843137 0.843137 0.843137
0.843137 0.843137 0.843137
0.843137 0.843137 0.843137
0.000000 0.843137 0.843137
0.000000 0.969233 0.969233
0.132351 1.000000 1.000000
0.343097 1.000000 1.000000
0.604941 1.000000 1.000000
0.843137 0.843137 0.843137
0.843137 0.843137 0.843137
0.843137 0.843137 0.843137
0.843137 0.843137 0.843137
0.000000 0.843137 0.843137
0.000000 0.969144 0.969144
0.131931 1.000000 1.000000
0.342005 1.000000 1.000000
0.603026 1.000000 1.000000
0.843137 0.843137 0.843137
0.843137 0.843137 0.843137
0.843137 0.843137 0.843137
0.843137 0.843137 0.843137
0.000000 0.000000 0.843137
0.129365 0.000000 0.843137
0.301693 0.000000 0.843137
0.525665 0.000000 0.843137
0.796037 0.000000 0.843137
0.843137 0.000000 0.843137
0.843137 0.000000 0.843137
0.843137 0.000000 0.843137
0.843137 0.000000 0.843137
0.000000 0.131166 0.843137
0.000000 0.003605 0.971605
0.228555 0.000000 0.974215
0.529433 0.000000 0.974178
0.895626 0.000000 0.974144
0.974113 0.000000 0.974113
0.974085 0.000000 0.974085
0.974059 0.000000 0.974059
0.974035 0.000000 0.974035
0.000000 0.311730 0.843137
0.000000 0.249450 0.970890
0.138417 0.163766 1.000000
0.473388 0.154392 1.000000
0.895155 0.154261 1.000000
1.000000 0.154141 1.000000
1.000000 0.154031 1.000000
1.000000 0.153928 1.000000
1.000000 0.153669 1.000000
0.000000 0.553985 0.843137
0.000000 0.577957 0.970306
0.136085 0.544906 1.000000
0.349989 0.439212 1.000000
0.847828 0.395876 1.000000
1.000000 0.395623 1.000000
1.000000 0.395004 1.000000
1.000000 0.394219 1.000000
1.000000 0.393370 1.000000
0.000000 0.838409 0.843137
0.000000 0.962999 0.969820
0.134142 0.991644 1.000000
0.345762 0.989244 1.000000
0.608784 0.968447 1.000000
1.000000 0.679159 1.000000
1.000000 0.678204 1.000000
1.000000 0.677145 1.000000
1.000000 0.675971 1.000000
0.000000 0.843137 0.843137
0.000000 0.969409 0.969409
0.132954 1.000000 1.000000
0.344646 1.000000 1.000000
0.607620 1.000000 1.000000
0.843137 0.843137 0.843137
0.843137 0.843137 0.843137
0.843137 0.843137 0.843137
0.843137 0.843137 0.843137
0.000000 0.843137 0.843137
0.000000 0.969295 0.969295
0.132643 1.000000 1.000000
0.343850 1.000000 1.000000
0.606249 1.000000 1.000000
0.843137 0.843137 0.843137
0.843137 0.843137 0.843137
0.843137 0.843137 0.843137
0.843137 0.843137 0.843137
0.000000 0.843137 0.843137
0.000000 0.969218 0.969218
0.132278 1.000000 1.000000
0.342909 1.000000 1.000000
0.604612 1.000000 1.000000
0.843137 0.843137 0.843137
0.843137 0.843137 0.843137
0.843137 0.843137 0.843137
0.843137 0.843137 0.843137
0.000000 0.843137 0.843137
0.000000 0.969126 0.969126
0.131843 1.000000 1.000000
0.341777 1.000000 1.000000
0.602623 1.000000 1.000000
0.843137 0.843137 0.843137
0.843137 0.843137 0.843137
0.843137 0.843137 0.843137
0.843137 0.843137 0.843137
0.000000 0.000000 0.843137
0.129180 0.000000 0.843137
0.300963 0.000000 0.843137
0.524106 0.000000 0.843137
0.793963 0.000000 0.843137
0.843137 0.000000 0.843137
0.843137 0.000000 0.843137
0.843137 0.000000 0.843137
0.843137 0.000000 0.843137
0.000000 0.131148 0.843137
0.000000 0.003780 0.971460
0.227774 0.000000 0.974201
0.527733 0.000000 0.974165
0.893273 0.000000 0.974132
0.974102 0.000000 0.974103
0.974075 0.000000 0.974075
0.974050 0.000000 0.974050
0.974027 0.000000 0.974027
0.000000 0.311664 0.843137
0.000000 0.249458 0.970772
0.137947 0.163942 1.000000
0.471793 0.154343 1.000000
0.892878 0.154216 1.000000
1.000000 0.154099 1.000000
1.000000 0.153992 1.000000
1.000000 0.153860 1.000000
1.000000 0.153555 1.000000
0.000000 0.553851 0.843137
0.000000 0.577787 0.970208
0.135696 0.544847 1.000000
0.349145 0.439691 1.000000
0.845325 0.395781 1.000000
1.000000 0.395472 1.000000
1.000000 0.394723 1.000000
1.000000 0.393915 1.000000
1.000000 0.393042 1.000000
0.000000 0.838292 0.843137
0.000000 0.962771 0.969738
0.133815 0.991488 1.000000
0.345208 0.988972 1.000000
0.608580 0.966964 1.000000
1.000000 0.678820 1.000000
1.000000 0.677828 1.000000
1.000000 0.676729 1.000000
1.000000 0.675507 1.000000
0.000000 0.843137 0.843137
0.000000 0.969350 0.969350
0.132899 1.000000 1.000000
0.344507 1.000000 1.000000
0.607381 1.000000 1.000000
0.843137 0.843137 0.843137
0.843137 0.843137 0.843137
0.843137 0.843137 0.843137
0.843137 0.843137 0.843137
0.000000 0.843137 0.843137
0.000000 0.969282 0.969282
0.132580 1.000000 1.000000
0.343687 1.000000 1.000000
0.605966 1.000000 1.000000
0.843137 0.843137 0.843137
0.843137 0.843137 0.843137
0.843137 0.843137 0.843137
0.843137 0.843137 0.843137
0.000000 0.843137 0.843137
0.000000 0.969202 0.969202
0.132203 1.000000 1.000000
0.342714 1.000000 1.000000
0.604271 1.000000 1.000000
0.843137 0.843137 0.843137
0.843137 0.843137 0.843137
0.843137 0.843137 0.843137
0.843137 0.843137 0.843137
0.000000 0.843137 0.843137
0.000000 0.969107 0.969107
0.131753 1.000000 1.000000
0.341540 1.000000 1.000000
0.602204 1.000000 1.000000
0.843137 0.843137 0.843137
0.843137 0.843137 0.843137
0.843137 0.843137 0.843137
0.843137 0.843137 0.843137
0.000000 0.000000 0.843137
0.129005 0.000000 0.843137
0.300265 0.000000 0.843137
0.522616 0.000000 0.843137
0.791963 0.000000 0.843137
0.843137 0.000000 0.843137
0.843137 0.000000 0.843137
0.843137 0.000000 0.843137
0.843137 0.000000 0.843137
0.000000 0.131131 0.843137
0.000000 0.003948 0.971320
0.227026 0.000000 0.974188
0.526099 0.000000 0.974153
0.890997 0.000000 0.974121
0.974092 0.000000 0.974092
0.974066 0.000000 0.974066
0.974041 0.000000 0.974041
0.974019 0.000000 0.974019
0.000000 0.311601 0.843137
0.000000 0.249465 0.970659
0.137495 0.164111 1.000000
0.470254 0.154295 1.000000
0.890671 0.154172 1.000000
1.000000 0.154059 1.000000
1.000000 0.153955 1.000000
1.000000 0.153751 1.000000
1.000000 0.153437 1.000000
0.000000 0.553722 0.843137
0.000000 0.577623 0.970114
0.135320 0.544790 1.000000
0.348327 0.440152 1.000000
0.842894 0.395689 1.000000
1.000000 0.395204 1.000000
1.000000 0.394434 1.000000
1.000000 0.393603 1.000000
1.000000 0.392703 1.000000
0.000000 0.838179 0.843137
0.000000 0.962551 0.969659
0.133498 0.991335 1.000000
0.345085 0.988420 1.000000
0.608371 0.965433 1.000000
1.000000 0.678468 1.000000
1.000000 0.677438 1.000000
1.000000 0.676296 1.000000
1.000000 0.675025 1.000000
0.000000 0.843137 0.843137
0.000000 0.969338 0.969338
0.132843 1.000000 1.000000
0.344364 1.000000 1.000000
0.607136 1.000000 1.000000
0.843137 0.843137 0.843137
0.843137 0.843137 0.843137
0.843137 0.843137 0.843137
0.843137 0.843137 0.843137
0.000000 0.843137 0.843137
0.000000 0.969268 0.969268
0.132514 1.000000 1.000000
0.343518 1.000000 1.000000
0.605674 1.000000 1.000000
0.843137 0.843137 0.843137
0.843137 0.843137 0.843137
0.843137 0.843137 0.843137
0.843137 0.843137 0.843137
0.000000 0.843137 0.843137
0.000000 0.969185 0.969185
0.132125 1.000000 1.000000
0.342512 1.000000 1.000000
0.603917 1.000000 1.000000
0.843137 0.843137 0.843137
0.843137 0.843137 0.843137
0.843137 0.843137 0.843137
0.843137 0.843137 0.843137
0.000000 0.843137 0.843137
0.000000 0.969087 0.969087
0.131659 1.000000 1.000000
0.341294 1.000000 1.000000
0.601767 1.000000 1.000000
0.843137 0.843137 0.843137
0.843137 0.843137 0.843137
0.843137 0.843137 0.843137
0.843137 0.843137 0.843137
