Assets/Labs/Lab 2/Exported LUT.cube
#Created by: Affinity
TITLE "Exported LUT"
#LUT size
LUT_3D_SIZE 5
#data domain
DOMAIN_MIN 0.0 0.0 0.0
DOMAIN_MAX 1.0 1.0 1.0
#LUT data points
0.000000 0.000000 0.000000
0.306908 0.000000 0.000000
0.810238 0.000000 0.000000
0.843137 0.000000 0.000000
0.843137 0.000000 0.000000
0.000000 0.312184 0.000000
0.298511 0.311767 0.000000
0.786860 0.311429 0.000000
0.843137 0.311149 0.000000
0.843137 0.310915 0.000000
0.000000 0.839182 0.000000
0.293202 0.838474 0.000000
0.770782 0.837865 0.000000
0.843137 0.837050 0.000000
0.843137 0.835265 0.000000
0.000000 0.843137 0.000000
0.289850 0.843137 0.000000
0.764630 0.843137 0.000000
0.843137 0.843137 0.000000
0.843137 0.843137 0.000000
0.000000 0.843137 0.000000
0.289188 0.843137 0.000000
0.761686 0.843137 0.000000
0.843137 0.843137 0.000000
0.843137 0.843137 0.000000
0.000000 0.000000 0.405622
0.304991 0.000000 0.422483
0.805145 0.000000 0.436549
0.843137 0.000000 0.448443
0.843137 0.000000 0.458630
0.000000 0.312020 0.436118
0.295126 0.309835 0.450297
0.919248 0.175487 0.407068
1.000000 0.154196 0.402367
1.000000 0.153975 0.414773
0.000000 0.838910 0.457996
0.130661 1.000000 0.408560
0.868526 0.999767 0.312579
1.000000 0.987466 0.325898
1.000000 0.983656 0.336024
0.000000 0.843137 0.474440
0.132879 1.000000 0.434846
0.850348 1.000000 0.335652
1.000000 1.000000 0.348089
1.000000 1.000000 0.363859
0.000000 0.843137 0.492145
0.132175 1.000000 0.469614
0.838099 1.000000 0.363266
1.000000 1.000000 0.383709
1.000000 1.000000 0.411549
0.000000 0.000000 0.843137
0.303261 0.000000 0.843137
0.800421 0.000000 0.843137
0.843137 0.000000 0.843137
0.843137 0.000000 0.843137
0.000000 0.311869 0.843137
0.139410 0.163392 1.000000
0.899937 0.154356 1.000000
1.000000 0.154111 1.000000
1.000000 0.153889 1.000000
0.000000 0.838653 0.843137
0.134827 0.991970 1.000000
0.609174 0.971274 1.000000
1.000000 0.678914 1.000000
1.000000 0.676844 1.000000
0.000000 0.843137 0.843137
0.132765 1.000000 1.000000
0.606788 1.000000 1.000000
0.843137 0.843137 0.843137
0.843137 0.843137 0.843137
0.000000 0.843137 0.843137
0.132015 1.000000 1.000000
0.603413 1.000000 1.000000
0.843137 0.843137 0.843137
0.843137 0.843137 0.843137
0.000000 0.000000 0.843137
0.301693 0.000000 0.843137
0.796037 0.000000 0.843137
0.843137 0.000000 0.843137
0.843137 0.000000 0.843137
0.000000 0.311730 0.843137
0.138417 0.163766 1.000000
0.895155 0.154261 1.000000
1.000000 0.154031 1.000000
1.000000 0.153669 1.000000
0.000000 0.838409 0.843137
0.134142 0.991644 1.000000
0.608784 0.968447 1.000000
1.000000 0.678204 1.000000
1.000000 0.675971 1.000000
0.000000 0.843137 0.843137
0.132643 1.000000 1.000000
0.606249 1.000000 1.000000
0.843137 0.843137 0.843137
0.843137 0.843137 0.843137
0.000000 0.843137 0.843137
0.131843 1.000000 1.000000
0.602623 1.000000 1.000000
0.843137 0.843137 0.843137
0.843137 0.843137 0.843137
0.000000 0.000000 0.843137
0.300265 0.000000 0.843137
0.791963 0.000000 0.843137
0.843137 0.000000 0.843137
0.843137 0.000000 0.843137
0.000000 0.311601 0.843137
0.137495 0.164111 1.000000
0.890671 0.154172 1.000000
1.000000 0.153955 1.000000
1.000000 0.153437 1.000000
0.000000 0.838179 0.843137
0.133498 0.991335 1.000000
0.608371 0.965433 1.000000
1.000000 0.677438 1.000000
1.000000 0.675025 1.000000
0.000000 0.843137 0.843137
0.132514 1.000000 1.000000
0.605674 1.000000 1.000000
0.843137 0.843137 0.843137
0.843137 0.843137 0.843137
0.000000 0.843137 0.843137
0.131659 1.000000 1.000000
0.601767 1.000000 1.000000
0.843137 0.843137 0.843137
0.843137 0.843137 0.843137
