Assets/Labs/Lab 2/Exported LUT.cube
#Created by: Affinity
TITLE "Exported LUT"
#LUT size
LUT_3D_SIZE 49
#data domain
DOMAIN_MIN 0.0 0.0 0.0
DOMAIN_MAX 1.0 1.0 1.0
#LUT data points
0.000000 0.000000 0.000000
0.018037 0.000000 0.000000
0.038071 0.000000 0.000000
0.059431 0.000000 0.000000
0.082002 0.000000 0.000000
0.105751 0.000000 0.000000
0.130680 0.000000 0.000000
0.156810 0.000000 0.000000
0.184172 0.000000 0.000000
0.212809 0.000000 0.000000
0.242771 0.000000 0.000000
0.274116 0.000000 0.000000
0.306908 0.000000 0.000000
0.341217 0.000000 0.000000
0.377118 0.000000 0.000000
0.414691 0.000000 0.000000
0.453899 0.000000 0.000000
0.494571 0.000000 0.000000
0.536715 0.000000 0.000000
0.580309 0.000000 0.000000
0.625268 0.000000 0.000000
0.671405 0.000000 0.000000
0.718327 0.000000 0.000000
0.765231 0.000000 0.000000
0.810238 0.000000 0.000000
0.843137 0.000000 0.000000
0.843137 0.000000 0.000000
0.843137 0.000000 0.000000
0.843137 0.000000 0.000000
0.843137 0.000000 0.000000
0.843137 0.000000 0.000000
0.843137 0.000000 0.000000
0.843137 0.000000 0.000000
0.843137 0.000000 0.000000
0.843137 0.000000 0.000000
0.843137 0.000000 0.000000
0.843137 0.000000 0.000000
0.843137 0.000000 0.000000
0.843137 0.000000 0.000000
0.843137 0.000000 0.000000
0.843137 0.000000 0.000000
0.843137 0.000000 0.000000
0.843137 0.000000 0.000000
0.843137 0.000000 0.000000
0.843137 0.000000 0.000000
0.843137 0.000000 0.000000
0.843137 0.000000 0.000000
0.843137 0.000000 0.000000
0.843137 0.000000 0.000000
0.000000 0.018039 0.000000
0.018031 0.018039 0.000000
0.038046 0.018039 0.000000
0.059376 0.018038 0.000000
0.081903 0.018038 0.000000
0.105596 0.018038 0.000000
0.130457 0.018038 0.000000
0.156506 0.018037 0.000000
0.183776 0.018037 0.000000
0.212308 0.018037 0.000000
0.242154 0.018036 0.000000
0.273372 0.018036 0.000000
0.306026 0.018036 0.000000
0.340186 0.018036 0.000000
0.375929 0.018036 0.000000
0.413333 0.018035 0.000000
0.452374 0.018035 0.000000
0.492879 0.018035 0.000000
0.534855 0.018035 0.000000
0.578283 0.018034 0.000000
0.623085 0.018034 0.000000
0.669082 0.018034 0.000000
0.715900 0.018034 0.000000
0.762770 0.018034 0.000000
0.807914 0.018033 0.000000
0.843137 0.018033 0.000000
0.843137 0.018033 0.000000
0.843137 0.018033 0.000000
0.843137 0.018033 0.000000
0.843137 0.018033 0.000000
0.843137 0.018032 0.000000
0.843137 0.018032 0.000000
0.843137 0.018032 0.000000
0.843137 0.018032 0.000000
0.843137 0.018032 0.000000
0.843137 0.018032 0.000000
0.843137 0.018031 0.000000
0.843137 0.018031 0.000000
0.843137 0.018031 0.000000
0.843137 0.018031 0.000000
0.843137 0.018031 0.000000
0.843137 0.018031 0.000000
0.843137 0.018031 0.000000
0.843137 0.018031 0.000000
0.843137 0.018030 0.000000
0.843137 0.018030 0.000000
0.843137 0.018030 0.000000
0.843137 0.018030 0.000000
0.843137 0.018030 0.000000
0.000000 0.038091 0.000000
0.018025 0.038090 0.000000
0.038023 0.038089 0.000000
0.059323 0.038088 0.000000
0.081809 0.038087 0.000000
0.105449 0.038085 0.000000
0.130245 0.038084 0.000000
0.156217 0.038083 0.000000
0.183398 0.038082 0.000000
0.211831 0.038081 0.000000
0.241567 0.038080 0.000000
0.272663 0.038079 0.000000
0.305185 0.038078 0.000000
0.339203 0.038077 0.000000
0.374794 0.038076 0.000000
0.412037 0.038075 0.000000
0.450919 0.038075 0.000000
0.491263 0.038074 0.000000
0.533077 0.038073 0.000000
0.576346 0.038072 0.000000
0.620997 0.038071 0.000000
0.666860 0.038070 0.000000
0.713575 0.038070 0.000000
0.760406 0.038069 0.000000
0.805667 0.038068 0.000000
0.842888 0.038067 0.000000
0.843137 0.038067 0.000000
0.843137 0.038066 0.000000
0.843137 0.038065 0.000000
0.843137 0.038064 0.000000
0.843137 0.038064 0.000000
0.843137 0.038063 0.000000
0.843137 0.038062 0.000000
0.843137 0.038062 0.000000
0.843137 0.038061 0.000000
0.843137 0.038060 0.000000
0.843137 0.038060 0.000000
0.843137 0.038059 0.000000
0.843137 0.038059 0.000000
0.843137 0.038058 0.000000
0.843137 0.038057 0.000000
0.843137 0.038057 0.000000
0.843137 0.038056 0.000000
0.843137 0.038056 0.000000
0.843137 0.038055 0.000000
0.843137 0.038055 0.000000
0.843137 0.038054 0.000000
0.843137 0.038054 0.000000
0.843137 0.038053 0.000000
0.000000 0.059503 0.000000
0.018020 0.059500 0.000000
0.038001 0.059497 0.000000
0.059273 0.059495 0.000000
0.081720 0.059492 0.000000
0.105308 0.059489 0.000000
0.130042 0.059487 0.000000
0.155941 0.059485 0.000000
0.183038 0.059482 0.000000
0.211376 0.059480 0.000000
0.241005 0.059478 0.000000
0.271986 0.059475 0.000000
0.304382 0.059473 0.000000
0.338264 0.059471 0.000000
0.373710 0.059469 0.000000
0.410799 0.059467 0.000000
0.449528 0.059465 0.000000
0.489718 0.059463 0.000000
0.531377 0.059461 0.000000
0.574493 0.059459 0.000000
0.618998 0.059457 0.000000
0.664730 0.059456 0.000000
0.711344 0.059454 0.000000
0.758134 0.059452 0.000000
0.803495 0.059450 0.000000
0.841728 0.059449 0.000000
0.843137 0.059447 0.000000
0.843137 0.059445 0.000000
0.843137 0.059444 0.000000
0.843137 0.059442 0.000000
0.843137 0.059441 0.000000
0.843137 0.059439 0.000000
0.843137 0.059438 0.000000
0.843137 0.059436 0.000000
0.843137 0.059435 0.000000
0.843137 0.059433 0.000000
0.843137 0.059432 0.000000
0.843137 0.059431 0.000000
0.843137 0.059429 0.000000
0.843137 0.059428 0.000000
0.843137 0.059427 0.000000
0.843137 0.059425 0.000000
0.843137 0.059424 0.000000
0.843137 0.059423 0.000000
0.843137 0.059422 0.000000
0.843137 0.059420 0.000000
0.843137 0.059419 0.000000
0.843137 0.059418 0.000000
0.843137 0.059417 0.000000
0.000000 0.082176 0.000000
0.018015 0.082171 0.000000
0.037980 0.082166 0.000000
0.059225 0.082161 0.000000
0.081634 0.082157 0.000000
0.105174 0.082152 0.000000
0.129848 0.082148 0.000000
0.155677 0.082144 0.000000
0.182693 0.082140 0.000000
0.210940 0.082136 0.000000
0.240469 0.082132 0.000000
0.271339 0.082128 0.000000
0.303614 0.082124 0.000000
0.337367 0.082120 0.000000
0.372673 0.082117 0.000000
0.409615 0.082113 0.000000
0.448196 0.082109 0.000000
0.488239 0.082106 0.000000
0.529749 0.082103 0.000000
0.572717 0.082099 0.000000
0.617082 0.082096 0.000000
0.662687 0.082093 0.000000
0.709202 0.082090 0.000000
0.755948 0.082087 0.000000
0.801394 0.082084 0.000000
0.840390 0.082081 0.000000
0.843137 0.082078 0.000000
0.843137 0.082075 0.000000
0.843137 0.082072 0.000000
0.843137 0.082069 0.000000
0.843137 0.082066 0.000000
0.843137 0.082064 0.000000
0.843137 0.082061 0.000000
0.843137 0.082058 0.000000
0.843137 0.082056 0.000000
0.843137 0.082053 0.000000
0.843137 0.082051 0.000000
0.843137 0.082048 0.000000
0.843137 0.082046 0.000000
0.843137 0.082044 0.000000
0.843137 0.082041 0.000000
0.843137 0.082039 0.000000
0.843137 0.082037 0.000000
0.843137 0.082035 0.000000
0.843137 0.082032 0.000000
0.843137 0.082030 0.000000
0.843137 0.082028 0.000000
0.843137 0.082026 0.000000
0.843137 0.082024 0.000000
0.000000 0.106097 0.000000
0.018010 0.106090 0.000000
0.037960 0.106082 0.000000
0.059180 0.106075 0.000000
0.081552 0.106068 0.000000
0.105046 0.106062 0.000000
0.129663 0.106055 0.000000
0.155425 0.106048 0.000000
0.182364 0.106042 0.000000
0.210524 0.106036 0.000000
0.239957 0.106029 0.000000
0.270720 0.106023 0.000000
0.302880 0.106018 0.000000
0.336508 0.106012 0.000000
0.371681 0.106006 0.000000
0.408481 0.106000 0.000000
0.446922 0.105995 0.000000
0.486822 0.105990 0.000000
0.528189 0.105984 0.000000
0.571016 0.105979 0.000000
0.615244 0.105974 0.000000
0.660726 0.105969 0.000000
0.707144 0.105964 0.000000
0.753844 0.105959 0.000000
0.799362 0.105955 0.000000
0.838980 0.105950 0.000000
0.843137 0.105946 0.000000
0.843137 0.105941 0.000000
0.843137 0.105937 0.000000
0.843137 0.105932 0.000000
0.843137 0.105928 0.000000
0.843137 0.105924 0.000000
0.843137 0.105920 0.000000
0.843137 0.105916 0.000000
0.843137 0.105912 0.000000
0.843137 0.105908 0.000000
0.843137 0.105904 0.000000
0.843137 0.105900 0.000000
0.843137 0.105897 0.000000
0.843137 0.105893 0.000000
0.843137 0.105889 0.000000
0.843137 0.105886 0.000000
0.843137 0.105882 0.000000
0.843137 0.105879 0.000000
0.843137 0.105875 0.000000
0.843137 0.105872 0.000000
0.843137 0.105869 0.000000
0.843137 0.105865 0.000000
0.843137 0.105862 0.000000
0.000000 0.131289 0.000000
0.018005 0.131278 0.000000
0.037941 0.131268 0.000000
0.059136 0.131258 0.000000
0.081474 0.131248 0.000000
0.104923 0.131238 0.000000
0.129486 0.131229 0.000000
0.155183 0.131219 0.000000
0.182049 0.131210 0.000000
0.210126 0.131201 0.000000
0.239465 0.131193 0.000000
0.270127 0.131184 0.000000
0.302176 0.131176 0.000000
0.335685 0.131167 0.000000
0.370731 0.131159 0.000000
0.407396 0.131151 0.000000
0.445699 0.131144 0.000000
0.485464 0.131136 0.000000
0.526693 0.131128 0.000000
0.569383 0.131121 0.000000
0.613480 0.131114 0.000000
0.658843 0.131107 0.000000
0.705166 0.131100 0.000000
0.751818 0.131093 0.000000
0.797396 0.131086 0.000000
0.837537 0.131079 0.000000
0.843137 0.131073 0.000000
0.843137 0.131066 0.000000
0.843137 0.131060 0.000000
0.843137 0.131054 0.000000
0.843137 0.131048 0.000000
0.843137 0.131042 0.000000
0.843137 0.131036 0.000000
0.843137 0.131030 0.000000
0.843137 0.131024 0.000000
0.843137 0.131019 0.000000
0.843137 0.131013 0.000000
0.843137 0.131008 0.000000
0.843137 0.131003 0.000000
0.843137 0.130997 0.000000
0.843137 0.130992 0.000000
0.843137 0.130987 0.000000
0.843137 0.130982 0.000000
0.843137 0.130977 0.000000
0.843137 0.130972 0.000000
0.843137 0.130967 0.000000
0.843137 0.130963 0.000000
0.843137 0.130958 0.000000
0.843137 0.130953 0.000000
0.000000 0.157791 0.000000
0.018001 0.157777 0.000000
0.037923 0.157763 0.000000
0.059094 0.157750 0.000000
0.081399 0.157736 0.000000
0.104805 0.157723 0.000000
0.129316 0.157711 0.000000
0.154952 0.157698 0.000000
0.181747 0.157686 0.000000
0.209744 0.157674 0.000000
0.238995 0.157662 0.000000
0.269559 0.157651 0.000000
0.301502 0.157639 0.000000
0.334896 0.157628 0.000000
0.369819 0.157617 0.000000
0.406354 0.157607 0.000000
0.444527 0.157596 0.000000
0.484160 0.157586 0.000000
0.525256 0.157576 0.000000
0.567815 0.157566 0.000000
0.611785 0.157556 0.000000
0.657032 0.157546 0.000000
0.703262 0.157537 0.000000
0.749866 0.157528 0.000000
0.795495 0.157518 0.000000
0.836085 0.157510 0.000000
0.843137 0.157501 0.000000
0.843137 0.157492 0.000000
0.843137 0.157484 0.000000
0.843137 0.157475 0.000000
0.843137 0.157467 0.000000
0.843137 0.157459 0.000000
0.843137 0.157451 0.000000
0.843137 0.157443 0.000000
0.843137 0.157435 0.000000
0.843137 0.157428 0.000000
0.843137 0.157420 0.000000
0.843137 0.157413 0.000000
0.843137 0.157406 0.000000
0.843137 0.157398 0.000000
0.843137 0.157391 0.000000
0.843137 0.157384 0.000000
0.843137 0.157378 0.000000
0.843137 0.157371 0.000000
0.843137 0.157364 0.000000
0.843137 0.157358 0.000000
0.843137 0.157351 0.000000
0.843137 0.157345 0.000000
0.843137 0.157339 0.000000
0.000000 0.185658 0.000000
0.017997 0.185640 0.000000
0.037905 0.185622 0.000000
0.059054 0.185605 0.000000
0.081327 0.185588 0.000000
0.104692 0.185571 0.000000
0.129153 0.185555 0.000000
0.154730 0.185539 0.000000
0.181457 0.185523 0.000000
0.209378 0.185507 0.000000
0.238544 0.185492 0.000000
0.269014 0.185477 0.000000
0.300855 0.185463 0.000000
0.334139 0.185448 0.000000
0.368945 0.185434 0.000000
0.405355 0.185420 0.000000
0.443401 0.185407 0.000000
0.482908 0.185393 0.000000
0.523876 0.185380 0.000000
0.566308 0.185368 0.000000
0.610156 0.185355 0.000000
0.655291 0.185342 0.000000
0.701429 0.185330 0.000000
0.747983 0.185318 0.000000
0.793655 0.185306 0.000000
0.834636 0.185295 0.000000
0.843137 0.185283 0.000000
0.843137 0.185272 0.000000
0.843137 0.185261 0.000000
0.843137 0.185250 0.000000
0.843137 0.185240 0.000000
0.843137 0.185229 0.000000
0.843137 0.185219 0.000000
0.843137 0.185208 0.000000
0.843137 0.185198 0.000000
0.843137 0.185189 0.000000
0.843137 0.185179 0.000000
0.843137 0.185169 0.000000
0.843137 0.185160 0.000000
0.843137 0.185151 0.000000
0.843137 0.185141 0.000000
0.843137 0.185132 0.000000
0.843137 0.185123 0.000000
0.843137 0.185115 0.000000
0.843137 0.185106 0.000000
0.843137 0.185098 0.000000
0.843137 0.185089 0.000000
0.843137 0.185081 0.000000
0.843137 0.185073 0.000000
0.000000 0.214955 0.000000
0.017992 0.214932 0.000000
0.037888 0.214910 0.000000
0.059015 0.214888 0.000000
0.081258 0.214867 0.000000
0.104584 0.214846 0.000000
0.128997 0.214825 0.000000
0.154517 0.214805 0.000000
0.181179 0.214785 0.000000
0.209026 0.214766 0.000000
0.238110 0.214747 0.000000
0.268491 0.214728 0.000000
0.300234 0.214710 0.000000
0.333413 0.214692 0.000000
0.368105 0.214675 0.000000
0.404394 0.214657 0.000000
0.442319 0.214640 0.000000
0.481704 0.214624 0.000000
0.522549 0.214607 0.000000
0.564858 0.214591 0.000000
0.608587 0.214575 0.000000
0.653614 0.214560 0.000000
0.699663 0.214544 0.000000
0.746166 0.214529 0.000000
0.791874 0.214514 0.000000
0.833197 0.214500 0.000000
0.843137 0.214485 0.000000
0.843137 0.214471 0.000000
0.843137 0.214457 0.000000
0.843137 0.214444 0.000000
0.843137 0.214430 0.000000
0.843137 0.214417 0.000000
0.843137 0.214404 0.000000
0.843137 0.214391 0.000000
0.843137 0.214379 0.000000
0.843137 0.214366 0.000000
0.843137 0.214354 0.000000
0.843137 0.214342 0.000000
0.843137 0.214330 0.000000
0.843137 0.214318 0.000000
0.843137 0.214307 0.000000
0.843137 0.214295 0.000000
0.843137 0.214284 0.000000
0.843137 0.214273 0.000000
0.843137 0.214262 0.000000
0.843137 0.214251 0.000000
0.843137 0.214241 0.000000
0.843137 0.214230 0.000000
0.843137 0.214220 0.000000
0.000000 0.245753 0.000000
0.017988 0.245725 0.000000
0.037872 0.245698 0.000000
0.058978 0.245672 0.000000
0.081191 0.245646 0.000000
0.104480 0.245620 0.000000
0.128847 0.245595 0.000000
0.154313 0.245571 0.000000
0.180912 0.245547 0.000000
0.208688 0.245523 0.000000
0.237694 0.245500 0.000000
0.267988 0.245477 0.000000
0.299637 0.245455 0.000000
0.332714 0.245433 0.000000
0.367298 0.245412 0.000000
0.403471 0.245390 0.000000
0.441278 0.245370 0.000000
0.480547 0.245349 0.000000
0.521273 0.245329 0.000000
0.563463 0.245309 0.000000
0.607077 0.245290 0.000000
0.651998 0.245271 0.000000
0.697960 0.245252 0.000000
0.744412 0.245234 0.000000
0.790149 0.245216 0.000000
0.831776 0.245198 0.000000
0.843137 0.245180 0.000000
0.843137 0.245163 0.000000
0.843137 0.245146 0.000000
0.843137 0.245129 0.000000
0.843137 0.245113 0.000000
0.843137 0.245096 0.000000
0.843137 0.245080 0.000000
0.843137 0.245065 0.000000
0.843137 0.245049 0.000000
0.843137 0.245034 0.000000
0.843137 0.245019 0.000000
0.843137 0.245004 0.000000
0.843137 0.244989 0.000000
0.843137 0.244975 0.000000
0.843137 0.244961 0.000000
0.843137 0.244947 0.000000
0.843137 0.244933 0.000000
0.843137 0.244920 0.000000
0.843137 0.244906 0.000000
0.843137 0.244893 0.000000
0.843137 0.244880 0.000000
0.843137 0.244867 0.000000
0.843137 0.244854 0.000000
0.000000 0.278133 0.000000
0.017985 0.278100 0.000000
0.037856 0.278068 0.000000
0.058943 0.278037 0.000000
0.081128 0.278006 0.000000
0.104380 0.277975 0.000000
0.128702 0.277946 0.000000
0.154116 0.277916 0.000000
0.180655 0.277888 0.000000
0.208364 0.277859 0.000000
0.237294 0.277832 0.000000
0.267505 0.277805 0.000000
0.299063 0.277778 0.000000
0.332042 0.277752 0.000000
0.366521 0.277726 0.000000
0.402583 0.277701 0.000000
0.440277 0.277676 0.000000
0.479432 0.277651 0.000000
0.520043 0.277627 0.000000
0.562119 0.277604 0.000000
0.605623 0.277580 0.000000
0.650441 0.277558 0.000000
0.696317 0.277535 0.000000
0.742718 0.277513 0.000000
0.788479 0.277491 0.000000
0.830376 0.277470 0.000000
0.843137 0.277449 0.000000
0.843137 0.277428 0.000000
0.843137 0.277407 0.000000
0.843137 0.277387 0.000000
0.843137 0.277367 0.000000
0.843137 0.277348 0.000000
0.843137 0.277329 0.000000
0.843137 0.277310 0.000000
0.843137 0.277291 0.000000
0.843137 0.277273 0.000000
0.843137 0.277255 0.000000
0.843137 0.277237 0.000000
0.843137 0.277219 0.000000
0.843137 0.277202 0.000000
0.843137 0.277185 0.000000
0.843137 0.277168 0.000000
0.843137 0.277151 0.000000
0.843137 0.277135 0.000000
0.843137 0.277119 0.000000
0.843137 0.277103 0.000000
0.843137 0.277087 0.000000
0.843137 0.277072 0.000000
0.843137 0.277057 0.000000
0.000000 0.312184 0.000000
0.017981 0.312146 0.000000
0.037841 0.312108 0.000000
0.058908 0.312071 0.000000
0.081066 0.312034 0.000000
0.104284 0.311999 0.000000
0.128563 0.311964 0.000000
0.153927 0.311929 0.000000
0.180408 0.311896 0.000000
0.208051 0.311863 0.000000
0.236908 0.311830 0.000000
0.267039 0.311798 0.000000
0.298511 0.311767 0.000000
0.331396 0.311736 0.000000
0.365773 0.311706 0.000000
0.401728 0.311676 0.000000
0.439312 0.311646 0.000000
0.478358 0.311618 0.000000
0.518858 0.311589 0.000000
0.560823 0.311561 0.000000
0.604220 0.311534 0.000000
0.648938 0.311507 0.000000
0.694731 0.311481 0.000000
0.741081 0.311454 0.000000
0.786860 0.311429 0.000000
0.828999 0.311403 0.000000
0.843137 0.311379 0.000000
0.843137 0.311354 0.000000
0.843137 0.311330 0.000000
0.843137 0.311306 0.000000
0.843137 0.311283 0.000000
0.843137 0.311260 0.000000
0.843137 0.311237 0.000000
0.843137 0.311215 0.000000
0.843137 0.311192 0.000000
0.843137 0.311171 0.000000
0.843137 0.311149 0.000000
0.843137 0.311128 0.000000
0.843137 0.311107 0.000000
0.843137 0.311087 0.000000
0.843137 0.311067 0.000000
0.843137 0.311047 0.000000
0.843137 0.311027 0.000000
0.843137 0.311008 0.000000
0.843137 0.310989 0.000000
0.843137 0.310970 0.000000
0.843137 0.310951 0.000000
0.843137 0.310933 0.000000
0.843137 0.310915 0.000000
0.000000 0.347998 0.000000
0.017977 0.347954 0.000000
0.037827 0.347910 0.000000
0.058876 0.347867 0.000000
0.081007 0.347825 0.000000
0.104191 0.347784 0.000000
0.128430 0.347743 0.000000
0.153745 0.347704 0.000000
0.180170 0.347665 0.000000
0.207750 0.347626 0.000000
0.236538 0.347588 0.000000
0.266591 0.347551 0.000000
0.297979 0.347515 0.000000
0.330773 0.347479 0.000000
0.365053 0.347444 0.000000
0.400904 0.347409 0.000000
0.438382 0.347375 0.000000
0.477323 0.347342 0.000000
0.517716 0.347309 0.000000
0.559574 0.347277 0.000000
0.602866 0.347245 0.000000
0.647488 0.347213 0.000000
0.693200 0.347182 0.000000
0.739498 0.347152 0.000000
0.785291 0.347122 0.000000
0.827648 0.347093 0.000000
0.843137 0.347064 0.000000
0.843137 0.347035 0.000000
0.843137 0.347007 0.000000
0.843137 0.346979 0.000000
0.843137 0.346952 0.000000
0.843137 0.346925 0.000000
0.843137 0.346899 0.000000
0.843137 0.346873 0.000000
0.843137 0.346847 0.000000
0.843137 0.346822 0.000000
0.843137 0.346797 0.000000
0.843137 0.346772 0.000000
0.843137 0.346748 0.000000
0.843137 0.346724 0.000000
0.843137 0.346700 0.000000
0.843137 0.346677 0.000000
0.843137 0.346654 0.000000
0.843137 0.346631 0.000000
0.843137 0.346609 0.000000
0.843137 0.346587 0.000000
0.843137 0.346565 0.000000
0.843137 0.346544 0.000000
0.843137 0.346523 0.000000
0.000000 0.385674 0.000000
0.017974 0.385623 0.000000
0.037813 0.385573 0.000000
0.058844 0.385524 0.000000
0.080950 0.385476 0.000000
0.104102 0.385429 0.000000
0.128301 0.385382 0.000000
0.153569 0.385337 0.000000
0.179941 0.385292 0.000000
0.207461 0.385248 0.000000
0.236180 0.385205 0.000000
0.266160 0.385163 0.000000
0.297466 0.385121 0.000000
0.330172 0.385080 0.000000
0.364359 0.385039 0.000000
0.400110 0.385000 0.000000
0.437485 0.384961 0.000000
0.476324 0.384922 0.000000
0.516614 0.384884 0.000000
0.558368 0.384847 0.000000
0.601559 0.384811 0.000000
0.646087 0.384775 0.000000
0.691719 0.384739 0.000000
0.737966 0.384704 0.000000
0.783769 0.384670 0.000000
0.826323 0.384636 0.000000
0.843137 0.384603 0.000000
0.843137 0.384570 0.000000
0.843137 0.384537 0.000000
0.843137 0.384506 0.000000
0.843137 0.384474 0.000000
0.843137 0.384443 0.000000
0.843137 0.384413 0.000000
0.843137 0.384383 0.000000
0.843137 0.384353 0.000000
0.843137 0.384324 0.000000
0.843137 0.384295 0.000000
0.843137 0.384267 0.000000
0.843137 0.384239 0.000000
0.843137 0.384211 0.000000
0.843137 0.384184 0.000000
0.843137 0.384157 0.000000
0.843137 0.384130 0.000000
0.843137 0.384104 0.000000
0.843137 0.384079 0.000000
0.843137 0.384053 0.000000
0.843137 0.384028 0.000000
0.843137 0.384003 0.000000
0.843137 0.383979 0.000000
0.000000 0.425309 0.000000
0.017971 0.425252 0.000000
0.037799 0.425195 0.000000
0.058813 0.425140 0.000000
0.080896 0.425085 0.000000
0.104016 0.425032 0.000000
0.128177 0.424980 0.000000
0.153400 0.424928 0.000000
0.179720 0.424877 0.000000
0.207181 0.424828 0.000000
0.235835 0.424779 0.000000
0.265743 0.424731 0.000000
0.296971 0.424683 0.000000
0.329593 0.424637 0.000000
0.363689 0.424591 0.000000
0.399343 0.424546 0.000000
0.436620 0.424502 0.000000
0.475360 0.424458 0.000000
0.515550 0.424415 0.000000
0.557204 0.424373 0.000000
0.600297 0.424331 0.000000
0.644733 0.424290 0.000000
0.690288 0.424250 0.000000
0.736484 0.424210 0.000000
0.782294 0.424171 0.000000
0.825025 0.424133 0.000000
0.843137 0.424095 0.000000
0.843137 0.424058 0.000000
0.843137 0.424021 0.000000
0.843137 0.423984 0.000000
0.843137 0.423949 0.000000
0.843137 0.423913 0.000000
0.843137 0.423879 0.000000
0.843137 0.423845 0.000000
0.843137 0.423811 0.000000
0.843137 0.423777 0.000000
0.843137 0.423745 0.000000
0.843137 0.423712 0.000000
0.843137 0.423680 0.000000
0.843137 0.423649 0.000000
0.843137 0.423618 0.000000
0.843137 0.423587 0.000000
0.843137 0.423557 0.000000
0.843137 0.423527 0.000000
0.843137 0.423498 0.000000
0.843137 0.423469 0.000000
0.843137 0.423440 0.000000
0.843137 0.423412 0.000000
0.843137 0.423384 0.000000
0.000000 0.466780 0.000000
0.017968 0.466716 0.000000
0.037787 0.466653 0.000000
0.058783 0.466592 0.000000
0.080843 0.466531 0.000000
0.103933 0.466472 0.000000
0.128057 0.466414 0.000000
0.153237 0.466356 0.000000
0.179507 0.466300 0.000000
0.206911 0.466245 0.000000
0.235503 0.466190 0.000000
0.265341 0.466137 0.000000
0.296494 0.466084 0.000000
0.329034 0.466032 0.000000
0.363043 0.465981 0.000000
0.398604 0.465931 0.000000
0.435784 0.465882 0.000000
0.474429 0.465833 0.000000
0.514522 0.465785 0.000000
0.556078 0.465738 0.000000
0.599077 0.465692 0.000000
0.643424 0.465646 0.000000
0.688902 0.465601 0.000000
0.735048 0.465557 0.000000
0.780861 0.465513 0.000000
0.823755 0.465470 0.000000
0.843137 0.465428 0.000000
0.843137 0.465386 0.000000
0.843137 0.465345 0.000000
0.843137 0.465305 0.000000
0.843137 0.465265 0.000000
0.843137 0.465225 0.000000
0.843137 0.465186 0.000000
0.843137 0.465148 0.000000
0.843137 0.465110 0.000000
0.843137 0.465073 0.000000
0.843137 0.465036 0.000000
0.843137 0.465000 0.000000
0.843137 0.464965 0.000000
0.843137 0.464929 0.000000
0.843137 0.464894 0.000000
0.843137 0.464860 0.000000
0.843137 0.464826 0.000000
0.843137 0.464793 0.000000
0.843137 0.464760 0.000000
0.843137 0.464727 0.000000
0.843137 0.464695 0.000000
0.843137 0.464663 0.000000
0.843137 0.464632 0.000000
0.000000 0.509975 0.000000
0.017965 0.509905 0.000000
0.037774 0.509836 0.000000
0.058755 0.509769 0.000000
0.080792 0.509702 0.000000
0.103853 0.509637 0.000000
0.127941 0.509573 0.000000
0.153079 0.509510 0.000000
0.179301 0.509448 0.000000
0.206651 0.509387 0.000000
0.235182 0.509326 0.000000
0.264953 0.509267 0.000000
0.296033 0.509209 0.000000
0.328495 0.509152 0.000000
0.362418 0.509096 0.000000
0.397889 0.509041 0.000000
0.434976 0.508986 0.000000
0.473530 0.508932 0.000000
0.513528 0.508880 0.000000
0.554990 0.508828 0.000000
0.597896 0.508776 0.000000
0.642158 0.508726 0.000000
0.687562 0.508676 0.000000
0.733657 0.508627 0.000000
0.779471 0.508579 0.000000
0.822512 0.508532 0.000000
0.843137 0.508485 0.000000
0.843137 0.508439 0.000000
0.843137 0.508393 0.000000
0.843137 0.508348 0.000000
0.843137 0.508304 0.000000
0.843137 0.508260 0.000000
0.843137 0.508217 0.000000
0.843137 0.508175 0.000000
0.843137 0.508133 0.000000
0.843137 0.508092 0.000000
0.843137 0.508051 0.000000
0.843137 0.508011 0.000000
0.843137 0.507971 0.000000
0.843137 0.507932 0.000000
0.843137 0.507894 0.000000
0.843137 0.507856 0.000000
0.843137 0.507818 0.000000
0.843137 0.507781 0.000000
0.843137 0.507744 0.000000
0.843137 0.507708 0.000000
0.843137 0.507673 0.000000
0.843137 0.507607 0.000000
0.843137 0.507500 0.000000
0.000000 0.554894 0.000000
